icons/wikipedia.svg

<svg width="25" height="17" viewBox="0 0 25 17" fill="none" xmlns="http://www.w3.org/2000/svg">
<path d="M13.7745 0.013H17.4925C17.6335 0.277026 17.6335 0.593974 17.4925 0.858C16.1925 1.066 15.7245 2.041 15.1395 3.237L13.3195 6.812L16.3745 13.585H16.4655L21.0415 3.055C21.6135 1.664 21.5615 0.988 20.0145 0.845C19.8712 0.581569 19.8712 0.263431 20.0145 0H24.4995C24.6429 0.263431 24.6429 0.581569 24.4995 0.845C22.9265 1.053 22.6535 2.028 22.1465 3.224L16.4655 16.328C16.2965 16.718 16.1535 16.913 15.8935 16.913C15.6335 16.913 15.4645 16.705 15.3475 16.328L12.1235 8.879L8.58754 16.328C8.44454 16.718 8.27554 16.913 8.01554 16.913C7.75554 16.913 7.61254 16.705 7.46954 16.328L2.26954 3.211C1.52854 1.391 1.48954 1.001 0.124538 0.871C-0.0317231 0.608683 -0.0415529 0.284298 0.0985381 0.013H5.18154C5.32487 0.276431 5.32487 0.594569 5.18154 0.858C3.67354 1.027 3.60854 1.443 4.21954 2.912L8.65254 13.559H8.71754L11.3825 7.813L9.40654 3.198C8.61354 1.378 8.39254 1.014 7.40454 0.871C7.26356 0.606974 7.26356 0.290026 7.40454 0.026H11.7205C11.8639 0.289431 11.8639 0.607569 11.7205 0.871C10.7585 1.027 10.8105 1.456 11.4735 2.925L12.6045 5.525L12.7085 5.642L14.0085 3.042C14.7495 1.56 14.8405 0.988 13.8135 0.832C13.6692 0.581263 13.6547 0.276316 13.7745 0.013Z" fill="#222222"/>
</svg>

<svg width="25" height="17" fill="none" xmlns="http://www.w3.org/2000/svg"><path d="M13.774.013h3.719a.897.897 0 0 1 0 .845c-1.3.208-1.768 1.183-2.353 2.379l-1.82 3.575 3.055 6.773h.09l4.576-10.53c.572-1.391.52-2.067-1.026-2.21a.884.884 0 0 1 0-.845H24.5a.884.884 0 0 1 0 .845c-1.573.208-1.846 1.183-2.354 2.379l-5.68 13.104c-.17.39-.313.585-.573.585-.26 0-.429-.208-.546-.585l-3.223-7.449-3.536 7.449c-.143.39-.312.585-.572.585-.26 0-.403-.208-.546-.585L2.27 3.211c-.741-1.82-.78-2.21-2.145-2.34A.884.884 0 0 1 .099.013h5.083a.884.884 0 0 1 0 .845c-1.508.169-1.573.585-.962 2.054l4.433 10.647h.065l2.665-5.746-1.976-4.615C8.614 1.378 8.393 1.014 7.405.871a.897.897 0 0 1 0-.845h4.315a.884.884 0 0 1 0 .845c-.962.156-.91.585-.247 2.054l1.131 2.6.105.117 1.3-2.6c.74-1.482.832-2.054-.196-2.21a.897.897 0 0 1-.039-.819z" fill="#222"/></svg>
